X:113
T:The Garden Of Dasies   Set (long) Dance  Allan's  #113  pp28
C:Trad/Anon
B:Allan's Irish Fiddler (pub. Mozart Allen,  Glascow) date unknown
Z:FROM ALLAN'S TO NOTEWORTHY, FROM NOTEWORTHY TO ABC, MIDI AND .TXT BY VINCE
BRENNAN Dec. 2002 (HTTP://WWW.SOSYOURMOM.COM)
I:abc2nwc
M:4/4
L:1/8
K:D
(f3/2g/2)|a2a3/2f/2g3/2b/2a3/2g/2|{fg}f3/2e/2f3/2a/2g3/2f/2e3/2f/2|d3/2c/2d3/2e/2f3/2d/2e3/2c/2|d3/2e/2d3/2c/2 A3/2G/2F3/2G/2|
A3/2B/2  (3(=cBA) d3/2^c/2A3/2G/2|F3/2E/2F3/2G/2 A3/2B/2c3/2A/2|d3/2c/2d3/2f/2 e3/2d/2c3/2e/2|d2d2d2:|
|:A2|d3/2c/2d3/2e/2 {fg}f3/2e/2f3/2g/2|a2a3/2f/2 d3/2e/2f3/2g/2|a2a3/2f/2g3/2b/2a3/2g/2|f3/2g/2f3/2e/2 d3/2e/2f3/2g/2|
a2a3/2f/2 g3/2b/2a3/2g/2|{fg}f3/2e/2f3/2a/2 g3/2f/2e3/2f/2|d3/2c/2d3/2e/2 f3/2d/2e3/2c/2|d3/2e/2d3/2c/2A2f3/2g/2|
a2a3/2f/2 g3/2b/2a3/2g/2|{fg}f3/2e/2f3/2a/2 g3/2f/2e3/2f/2|d3/2c/2d3/2e/2 f3/2d/2e3/2c/2|d3/2e/2d3/2c/2 A3/2G/2F3/2G/2|
A3/2B/2  (3(=cBA) d3/2^c/2A3/2G/2|F3/2E/2F3/2G/2 A3/2B/2c3/2A/2|d3/2^c/2d3/2f/2 e3/2d/2c3/2e/2|d2d2d2:|
